svg/emoji_u1f6f3.svg

<?xml version="1.0" encoding="UTF-8"?>
<svg width="128" height="128" enable-background="new 0 0 128 128" xmlns="http://www.w3.org/2000/svg" xmlns:xlink="http://www.w3.org/1999/xlink"><linearGradient id="d" x1="64" x2="64" y1="83.5" y2="125.65" gradientUnits="userSpaceOnUse"><stop stop-color="#29B6F6" offset="0"/><stop stop-color="#0288D1" offset=".9826"/></linearGradient><rect x="4" y="80" width="120" height="44" fill="url(#d)"/><g opacity=".2"><path d="m121 83v38h-114v-38h114m3-3h-120v44h120v-44z" fill="#424242"/></g><rect x="-399" y="-202.67" width="0" height=".67" fill="#F2F2F2"/><path d="m-107.5-112.17" fill="none" stroke="#f00" stroke-miterlimit="10" stroke-width=".25"/><path d="m-103.5-112.17" fill="none" stroke="#f00" stroke-miterlimit="10" stroke-width=".25"/><path d="m6-100.25" fill="none" stroke="#f00" stroke-miterlimit="10" stroke-width=".25"/><path d="m14.64-121.97" fill="none" stroke="#ED1E79" stroke-miterlimit="10" stroke-width=".25"/><path d="m66.96 28h-19.56c-2.76 0-5.68 6.52-5.68 6.52h30.35c0.01 0-2.24-6.52-5.11-6.52z" fill="#757575"/><path d="m103.08 28c-3.73 0-7.13 1.92-8.8 4.96l-0.86 1.56h19.37l-1.05-1.79c-1.71-2.91-5.04-4.73-8.66-4.73z" fill="#757575"/><path d="m54.55 22.16" fill="#BDBDBD" stroke="#f00" stroke-miterlimit="10" stroke-width=".25"/><path d="m58.56 22.16" fill="#BDBDBD" stroke="#f00" stroke-miterlimit="10" stroke-width=".25"/><g opacity=".2"><path d="m66.95 30c0.44 0.07 1.28 1.09 2.06 2.52h-23.92c0.9-1.39 1.82-2.44 2.31-2.52h19.55m0.01-2h-19.56c-2.76 0-5.68 6.52-5.68 6.52h30.35c0.01 0-2.24-6.52-5.11-6.52z" fill="#424242"/></g><g opacity=".2"><path d="m103.08 30c2.37 0 4.56 0.94 6.03 2.52h-12.06c1.47-1.56 3.69-2.52 6.03-2.52m0-2c-3.73 0-7.13 1.92-8.8 4.96l-0.86 1.56h19.37l-1.05-1.79c-1.71-2.91-5.04-4.73-8.66-4.73z" fill="#424242"/></g><path d="m20.02 54.91" fill="none" stroke="#f00" stroke-miterlimit="10" stroke-width=".25"/><path d="m24.02 54.91" fill="none" stroke="#f00" stroke-miterlimit="10" stroke-width=".25"/><linearGradient id="c" x1="63.987" x2="63.987" y1="46" y2="88.672" gradientUnits="userSpaceOnUse"><stop stop-color="#F5F5F5" offset="0"/><stop stop-color="#E0E0E0" offset="1"/></linearGradient><path d="m117.1 33h-81.01c-0.96 0-1.86 0.47-2.41 1.25l-1.32 1.88c-0.37 0.53 0.01 1.27 0.66 1.26l1.76-0.02c0.52-0.01 0.82 0.58 0.52 1l-15.3 21.69h-16c-0.06 0 0 1.91 0 1.91 0 1.97 0.67 3.87 1.9 5.41l11.64 14.5c1.62 2.02 2.46 3.66 2.41 6.25l104.05-0.09v-28.26l-5.16-21.68c0.85 0 1.44-0.86 1.13-1.65l-0.32-0.82c-0.56-1.58-0.88-2.63-2.55-2.63z" fill="url(#c)"/><defs><path id="b" d="M34.57,39.41L20,60.06H4v1.95c0,1.94,0.66,3.83,1.88,5.34l11.67,14.53c1.62,2.02,2.46,3.66,2.41,6.25l0,0 L124,88.04V74.21L95.08,61.07L112,60.99l-0.38-21.11L34.57,39.41z"/></defs><clipPath id="a"><use xlink:href="#b"/></clipPath><rect x="4" y="75.83" width="122" height="13.17" clip-path="url(#a)" fill="#01579B"/><rect x="28.75" y="40" width="79.33" height="6" clip-path="url(#a)" fill="#4FC3F7"/><rect x="21.01" y="50.41" width="86.87" height="8" clip-path="url(#a)" fill="#4FC3F7"/><g clip-path="url(#a)" opacity=".2"><path d="m106.08 42v2h-75.33v-2h75.33m2-2h-79.33v6h79.33v-6z" fill="#424242"/></g><g clip-path="url(#a)" opacity=".2"><path d="m105.87 52.41v4h-82.86v-4h82.86m2-2h-86.86v8h86.87v-8h-0.01z" fill="#424242"/></g><polygon points="13.35 59.12 12.01 61 13.35 59.13" fill="none"/><polygon points="92.6 32.42 92.23 33 92.23 33" fill="#90CAF9"/><g opacity=".2"><polygon points="107.13 32.26 107.64 33" fill="#424242"/></g><g opacity=".2"><polygon points="36.09 33 36.09 33" fill="#424242"/></g><g opacity=".2"><path d="m117.1 35c0.07 0 0.12 0 0.15 0.01 0.13 0.21 0.32 0.74 0.46 1.13l0.06 0.16c0.01 0.02 0.01 0.04 0.02 0.06l0.01 0.03c-0.2 0.12-0.38 0.28-0.53 0.47-0.38 0.48-0.52 1.11-0.38 1.7l5.1 21.46v26.03l-100.17 0.08c-0.35-2.16-1.35-3.81-2.71-5.5l-11.65-14.51c-0.92-1.15-1.44-2.59-1.46-4.06h14c0.65 0 1.26-0.32 1.63-0.85l15.3-21.69c0.57-0.81 0.64-1.85 0.19-2.73-0.37-0.72-1.04-1.21-1.82-1.37l0.02-0.02c0.18-0.25 0.46-0.4 0.77-0.4h81.01m0-2h-81.01c-0.96 0-1.86 0.47-2.41 1.25l-1.32 1.88c-0.37 0.53 0.01 1.26 0.65 1.26h0.01l1.76-0.02h0.01c0.51 0 0.81 0.58 0.52 1l-15.31 21.69h-16c-0.06 0 0 1.91 0 1.91 0 1.97 0.67 3.87 1.9 5.41l11.64 14.5c1.62 2.02 2.46 3.66 2.41 6.25l104.05-0.09v-28.26l-5.16-21.68c0.85 0 1.44-0.86 1.13-1.65l-0.32-0.82c-0.56-1.58-0.88-2.63-2.55-2.63z" fill="#424242"/></g><circle cx="26.71" cy="68.43" r="4" fill="#FF9800"/><circle cx="48.23" cy="68.43" r="4" fill="#FF9800"/><circle cx="69.75" cy="68.43" r="4" fill="#FF9800"/><circle cx="91.27" cy="68.43" r="4" fill="#FF9800"/><circle cx="112.79" cy="68.43" r="4" fill="#FF9800"/><g opacity=".2"><path d="m26.71 66.43c1.1 0 2 0.9 2 2s-0.9 2-2 2-2-0.9-2-2 0.89-2 2-2m0-2c-2.21 0-4 1.79-4 4s1.79 4 4 4 4-1.79 4-4-1.79-4-4-4z" fill="#424242"/></g><g opacity=".2"><path d="m48.23 66.43c1.1 0 2 0.9 2 2s-0.9 2-2 2-2-0.9-2-2 0.9-2 2-2m0-2c-2.21 0-4 1.79-4 4s1.79 4 4 4 4-1.79 4-4-1.79-4-4-4z" fill="#424242"/></g><g opacity=".2"><path d="m69.75 66.43c1.1 0 2 0.9 2 2s-0.9 2-2 2-2-0.9-2-2 0.9-2 2-2m0-2c-2.21 0-4 1.79-4 4s1.79 4 4 4 4-1.79 4-4-1.79-4-4-4z" fill="#424242"/></g><g opacity=".2"><path d="m91.27 66.43c1.1 0 2 0.9 2 2s-0.9 2-2 2-2-0.9-2-2 0.9-2 2-2m0-2c-2.21 0-4 1.79-4 4s1.79 4 4 4 4-1.79 4-4-1.79-4-4-4z" fill="#424242"/></g><g opacity=".2"><path d="m112.79 66.43c1.1 0 2 0.9 2 2s-0.9 2-2 2-2-0.9-2-2 0.9-2 2-2m0-2c-2.21 0-4 1.79-4 4s1.79 4 4 4 4-1.79 4-4-1.79-4-4-4z" fill="#424242"/></g></svg>

<svg width="128" height="128" style="enable-background:new 0 0 128 128;" xmlns="http://www.w3.org/2000/svg" xmlns:xlink="http://www.w3.org/1999/xlink">
  <linearGradient id="SVGID_1_" gradientUnits="userSpaceOnUse" x1="64" x2="64" y1="83.5" y2="125.6456">
    <stop offset="0" style="stop-color:#29B6F6"/>
    <stop offset="0.9826" style="stop-color:#0288D1"/>
  </linearGradient>
  <rect height="44" style="fill:url(#SVGID_1_);" width="120" x="4" y="80"/>
  <g style="opacity:0.2;">
    <path d="M121,83v38H7V83H121 M124,80H4v44h120V80L124,80z" style="fill:#424242;"/>
  </g>
  <rect height="0.67" style="fill:#F2F2F2;" width="0" x="-399" y="-202.67"/>
  <path d="M-107.5-112.17" style="fill:none;stroke:#FF0000;stroke-width:0.25;stroke-miterlimit:10;"/>
  <path d="M-103.5-112.17" style="fill:none;stroke:#FF0000;stroke-width:0.25;stroke-miterlimit:10;"/>
  <path d="M6-100.25" style="fill:none;stroke:#FF0000;stroke-width:0.25;stroke-miterlimit:10;"/>
  <path d="M14.64-121.97" style="fill:none;stroke:#ED1E79;stroke-width:0.25;stroke-miterlimit:10;"/>
  <path d="M66.96,28H47.4c-2.76,0-5.68,6.52-5.68,6.52h30.35C72.08,34.52,69.83,28,66.96,28z" style="fill:#757575;"/>
  <path d="M103.08,28L103.08,28c-3.73,0-7.13,1.92-8.8,4.96l-0.86,1.56h19.37l-1.05-1.79 C110.03,29.82,106.7,28,103.08,28z" style="fill:#757575;"/>
  <path d="M54.55,22.16" style="fill:#BDBDBD;stroke:#FF0000;stroke-width:0.25;stroke-miterlimit:10;"/>
  <path d="M58.56,22.16" style="fill:#BDBDBD;stroke:#FF0000;stroke-width:0.25;stroke-miterlimit:10;"/>
  <g style="opacity:0.2;">
    <path d="M66.95,30c0.44,0.07,1.28,1.09,2.06,2.52H45.09c0.9-1.39,1.82-2.44,2.31-2.52H66.95 M66.96,28H47.4 c-2.76,0-5.68,6.52-5.68,6.52h30.35C72.08,34.52,69.83,28,66.96,28L66.96,28z" style="fill:#424242;"/>
  </g>
  <g style="opacity:0.2;">
    <path d="M103.08,30c2.37,0,4.56,0.94,6.03,2.52H97.05C98.52,30.96,100.74,30,103.08,30 M103.08,28 c-3.73,0-7.13,1.92-8.8,4.96l-0.86,1.56h19.37l-1.05-1.79C110.03,29.82,106.7,28,103.08,28L103.08,28z" style="fill:#424242;"/>
  </g>
  <path d="M20.02,54.91" style="fill:none;stroke:#FF0000;stroke-width:0.25;stroke-miterlimit:10;"/>
  <path d="M24.02,54.91" style="fill:none;stroke:#FF0000;stroke-width:0.25;stroke-miterlimit:10;"/>
  <linearGradient id="SVGID_2_" gradientUnits="userSpaceOnUse" x1="63.9869" x2="63.9869" y1="46" y2="88.6719">
    <stop offset="0" style="stop-color:#F5F5F5"/>
    <stop offset="1" style="stop-color:#E0E0E0"/>
  </linearGradient>
  <path d="M117.1,33H36.09c-0.96,0-1.86,0.47-2.41,1.25l-1.32,1.88c-0.37,0.53,0.01,1.27,0.66,1.26 l1.76-0.02c0.52-0.01,0.82,0.58,0.52,1L20,60.06H4c-0.06,0,0,1.91,0,1.91c0,1.97,0.67,3.87,1.9,5.41l11.64,14.5 c1.62,2.02,2.46,3.66,2.41,6.25l0,0L124,88.04V59.78l-5.16-21.68l0,0c0.85,0,1.44-0.86,1.13-1.65l-0.32-0.82 C119.09,34.05,118.77,33,117.1,33z" style="fill:url(#SVGID_2_);"/>
  <g>
    <defs>
      <path id="SVGID_3_" d="M34.57,39.41L20,60.06H4v1.95c0,1.94,0.66,3.83,1.88,5.34l11.67,14.53c1.62,2.02,2.46,3.66,2.41,6.25l0,0 L124,88.04V74.21L95.08,61.07L112,60.99l-0.38-21.11L34.57,39.41z"/>
    </defs>
    <clipPath id="SVGID_4_">
      <use style="overflow:visible;" xlink:href="#SVGID_3_"/>
    </clipPath>
    <rect height="13.17" style="clip-path:url(#SVGID_4_);fill:#01579B;" width="122" x="4" y="75.83"/>
    <rect height="6" style="clip-path:url(#SVGID_4_);fill:#4FC3F7;" width="79.33" x="28.75" y="40"/>
    <rect height="8" style="clip-path:url(#SVGID_4_);fill:#4FC3F7;" width="86.87" x="21.01" y="50.41"/>
    <g style="opacity:0.2;clip-path:url(#SVGID_4_);">
      <path d="M106.08,42v2H30.75v-2H106.08 M108.08,40H28.75v6h79.33V40L108.08,40z" style="fill:#424242;"/>
    </g>
    <g style="opacity:0.2;clip-path:url(#SVGID_4_);">
      <path d="M105.87,52.41v4H23.01v-4H105.87 M107.87,50.41H21.01v8h86.87V50.41L107.87,50.41z" style="fill:#424242;"/>
    </g>
  </g>
  <polygon points="13.35,59.12 12.01,61 13.35,59.13 " style="fill:none;"/>
  <polygon points="92.6,32.42 92.23,33 92.23,33 " style="fill:#90CAF9;"/>
  <g style="opacity:0.2;">
    <polygon points="107.13,32.26 107.64,33 107.13,32.26 " style="fill:#424242;"/>
  </g>
  <g style="opacity:0.2;">
    <polygon points="36.09,33 36.09,33 36.09,33 " style="fill:#424242;"/>
  </g>
  <g style="opacity:0.2;">
    <path d="M117.1,35c0.07,0,0.12,0,0.15,0.01c0.13,0.21,0.32,0.74,0.46,1.13l0.06,0.16 c0.01,0.02,0.01,0.04,0.02,0.06l0.01,0.03c-0.2,0.12-0.38,0.28-0.53,0.47c-0.38,0.48-0.52,1.11-0.38,1.7l5.1,21.46v26.03 L21.82,86.13c-0.35-2.16-1.35-3.81-2.71-5.5L7.46,66.12C6.54,64.97,6.02,63.53,6,62.06h14c0.65,0,1.26-0.32,1.63-0.85l15.3-21.69 c0.57-0.81,0.64-1.85,0.19-2.73c-0.37-0.72-1.04-1.21-1.82-1.37l0.02-0.02c0.18-0.25,0.46-0.4,0.77-0.4H117.1 M117.1,33H36.09 c-0.96,0-1.86,0.47-2.41,1.25l-1.32,1.88c-0.37,0.53,0.01,1.26,0.65,1.26c0,0,0.01,0,0.01,0l1.76-0.02c0,0,0,0,0.01,0 c0.51,0,0.81,0.58,0.52,1L20,60.06H4c-0.06,0,0,1.91,0,1.91c0,1.97,0.67,3.87,1.9,5.41l11.64,14.5c1.62,2.02,2.46,3.66,2.41,6.25 L124,88.04V59.78l-5.16-21.68c0.85,0,1.44-0.86,1.13-1.65l-0.32-0.82C119.09,34.05,118.77,33,117.1,33L117.1,33z" style="fill:#424242;"/>
  </g>
  <circle cx="26.71" cy="68.43" r="4" style="fill:#FF9800;"/>
  <circle cx="48.23" cy="68.43" r="4" style="fill:#FF9800;"/>
  <circle cx="69.75" cy="68.43" r="4" style="fill:#FF9800;"/>
  <circle cx="91.27" cy="68.43" r="4" style="fill:#FF9800;"/>
  <circle cx="112.79" cy="68.43" r="4" style="fill:#FF9800;"/>
  <g style="opacity:0.2;">
    <path d="M26.71,66.43c1.1,0,2,0.9,2,2s-0.9,2-2,2s-2-0.9-2-2S25.6,66.43,26.71,66.43 M26.71,64.43 c-2.21,0-4,1.79-4,4c0,2.21,1.79,4,4,4c2.21,0,4-1.79,4-4C30.71,66.22,28.92,64.43,26.71,64.43L26.71,64.43z" style="fill:#424242;"/>
  </g>
  <g style="opacity:0.2;">
    <path d="M48.23,66.43c1.1,0,2,0.9,2,2s-0.9,2-2,2s-2-0.9-2-2S47.13,66.43,48.23,66.43 M48.23,64.43 c-2.21,0-4,1.79-4,4c0,2.21,1.79,4,4,4c2.21,0,4-1.79,4-4C52.23,66.22,50.44,64.43,48.23,64.43L48.23,64.43z" style="fill:#424242;"/>
  </g>
  <g style="opacity:0.2;">
    <path d="M69.75,66.43c1.1,0,2,0.9,2,2s-0.9,2-2,2s-2-0.9-2-2S68.65,66.43,69.75,66.43 M69.75,64.43 c-2.21,0-4,1.79-4,4c0,2.21,1.79,4,4,4s4-1.79,4-4C73.75,66.22,71.96,64.43,69.75,64.43L69.75,64.43z" style="fill:#424242;"/>
  </g>
  <g style="opacity:0.2;">
    <path d="M91.27,66.43c1.1,0,2,0.9,2,2s-0.9,2-2,2s-2-0.9-2-2S90.17,66.43,91.27,66.43 M91.27,64.43 c-2.21,0-4,1.79-4,4c0,2.21,1.79,4,4,4c2.21,0,4-1.79,4-4C95.27,66.22,93.48,64.43,91.27,64.43L91.27,64.43z" style="fill:#424242;"/>
  </g>
  <g style="opacity:0.2;">
    <path d="M112.79,66.43c1.1,0,2,0.9,2,2s-0.9,2-2,2s-2-0.9-2-2S111.69,66.43,112.79,66.43 M112.79,64.43 c-2.21,0-4,1.79-4,4c0,2.21,1.79,4,4,4c2.21,0,4-1.79,4-4C116.79,66.22,115,64.43,112.79,64.43L112.79,64.43z" style="fill:#424242;"/>
  </g>
</svg>
